X: 20372
T: John Collin's
R: polka
M: 2/4
K: Dmajor
|:F/G/|Ad cB|BA F2|AG EF/E/|BA F>G|
Ad cB|BA F2|AG/A/ Bc|1 d2 d:|2 d2- d2||
|:A/B/A/G/ AB|de f2|ed Be|ed/B/ A2|
A(3c/B/A/ AB|de fg/f/|ed BA|1 d2 dB:|2 d2 d||

